build/img/icon-mc.svg

<svg width="25" height="16" viewBox="0 0 25 16" fill="none" xmlns="http://www.w3.org/2000/svg">
<path d="M9.12305 1.71106H15.8828V14.2888H9.12305V1.71106Z" fill="#FF5F00"/>
<path d="M9.55251 8C9.55251 5.44448 10.7113 3.17777 12.4924 1.71107C11.1834 0.644422 9.5311 0 7.7285 0C3.45788 0 0.00292969 3.57772 0.00292969 8C0.00292969 12.4222 3.45788 16 7.7284 16C9.531 16 11.1834 15.3556 12.4924 14.2888C10.7113 12.8444 9.55251 10.5555 9.55251 8Z" fill="#EB001B"/>
<path d="M25.0031 8C25.0031 12.4222 21.5482 16 17.2777 16C15.4751 16 13.8227 15.3556 12.5137 14.2888C14.3163 12.8222 15.4536 10.5555 15.4536 8C15.4536 5.44448 14.2948 3.17777 12.5137 1.71107C13.8226 0.644422 15.4751 0 17.2777 0C21.5482 0 25.0032 3.59999 25.0032 8H25.0031Z" fill="#F79E1B"/>
</svg>

<svg width="25" height="16" fill="none" xmlns="http://www.w3.org/2000/svg"><path d="M9.123 1.711h6.76V14.29h-6.76V1.71z" fill="#FF5F00"/><path d="M9.553 8a8.128 8.128 0 012.94-6.289A7.513 7.513 0 007.728 0C3.458 0 .003 3.578.003 8c0 4.422 3.455 8 7.725 8a7.513 7.513 0 004.764-1.711c-1.78-1.445-2.94-3.733-2.94-6.289z" fill="#EB001B"/><path d="M25.003 8c0 4.422-3.455 8-7.725 8a7.513 7.513 0 01-4.764-1.711c1.802-1.467 2.94-3.733 2.94-6.289a8.128 8.128 0 00-2.94-6.289A7.513 7.513 0 0117.278 0c4.27 0 7.725 3.6 7.725 8z" fill="#F79E1B"/></svg>
